X: 39
T:Miss Johnstone
M:4/4
L:1/8
R:Reel
K:G
d|"G"Bcde dBBe|"G"dBgB bBgB|"G"Bcde dBBd|"D"cAag "D7"fefd:|!
"G"BABd GGBA |"G"GBDB GBDB|"G"BcBA GBAG|"D"FGAB cAec|!
"G"BABd GGBA|"G"GBDB GBDB|"G"dBcA "Em"BGAF|"D"DEFG ABcd||
